dist/img/icon-quote-end.svg

<svg width="15" height="16" viewBox="0 0 15 16" fill="none" xmlns="http://www.w3.org/2000/svg">
<path d="M14.1289 5.5625C14.1289 7.37891 13.7676 9.13672 13.0449 10.8359C12.3223 12.5547 11.3164 14.0195 10.0273 15.2305L7.91797 13.7363C8.85547 12.4277 9.53906 11.1387 9.96875 9.86914C10.3984 8.61914 10.6133 7.21289 10.6133 5.65039V0.552734H14.1289V5.5625ZM6.89258 5.5625C6.89258 7.37891 6.53125 9.13672 5.80859 10.8359C5.08594 12.5547 4.08008 14.0195 2.79102 15.2305L0.681641 13.7363C1.61914 12.4277 2.30273 11.1387 2.73242 9.86914C3.16211 8.61914 3.37695 7.21289 3.37695 5.65039V0.552734H6.89258V5.5625Z" fill="#00787C"/>
</svg>

<svg width="15" height="16" viewBox="0 0 15 16" fill="none" xmlns="http://www.w3.org/2000/svg"><path d="M14.129 5.563c0 1.816-.361 3.574-1.084 5.273-.723 1.719-1.729 3.184-3.018 4.394l-2.109-1.494c.937-1.308 1.621-2.597 2.05-3.867.43-1.25.645-2.656.645-4.219V.553h3.516v5.01zm-7.236 0c0 1.816-.362 3.574-1.084 5.273-.723 1.719-1.729 3.184-3.018 4.394l-2.11-1.494c.938-1.308 1.622-2.597 2.051-3.867.43-1.25.645-2.656.645-4.219V.553h3.516v5.01z" fill="#00787C"/></svg>
